X:1
T:Rond de l'ile d'Yeu
C:Arbadétorne, Extrait du disque "Djess", musique Maxime Chevrier, fichier abc : Bernard Loffet
L:1/8
Q:330
M:12/8
K:G
 z8z3A |: [A2A,,2A,2]c [B2A,,2A,2]A [GG,,G,]FG [E2A,,2A,2]A | [A2A,,2A,2]c [B2A,,2A,2]A [G3G,,3G,3] [E2A,,2A,2]E | \
 [A2A,,2A,2]c [B2A,,2A,2]A [G3G,,3G,3] [E2A,,2A,2]E :|: [A2A,,2A,2]A [A2A,,2A,2]B [cC,,C,]cc [c2C,,2C,2]d | \
 [B2E,,2E,2]B [B2E,,2E,2]c [B3E,,3E,3] [A2A,,2A,2]A/A/ | [A2A,,2A,2]c [B2A,,2A,2]A [GE,,E,]FG [EE,,E,]AA | \
|1 [A2=F,,2=F,2]c [B2F,,2F,2]A [G3G,,3G,3] [E2A,,2A,2]E :|2 [A2=F,,2=F,2]c [B2F,,2F,2]A [B3G,,3G,3] [A3A,,3A,3] | \
K:C
W:Created with TablEdit http://www.tabledit.com/ by Bernard Loffet
